X: 4310
T: The Argyll Square
C: Roy Goldring
P: 96J4
%
P: Planxty Denis O'Conor
C: O'Carolan
B: O'Neill's 667
Z: 1997 by John Chambers <jc:trillian.mit.edu>
N: The FSCDS version doesn't use the 3rd part.
N: "Spirited"
M: 6/8
L: 1/8
K: Bb
   F | B2B  BcA | B2f fge | d2e fdB | {c}BAB cAF | B2B  BcA | B2f fge | d2e fdB | FGA B2 :|
|: B | f2f  fga | b2f gfe | d2e fdB | {c}BAB cAF | f2f  fga | b2b bag | f2g fdB | FGA B2 :|
%  z | B,DF BAB | cAF FGA | Bcd dcB |    cAF EDC | B,DF BAB | cde edc | f2F FGA | B3  B2 :|
